X: 1073
T: The Boys of Coomanore
R:double jig
N:"collected by F.O'Neill"
B:O'Neill's 1073
Z:Transcribed by henrik.norbeck@mailbox.swipnet.se
M:6/8
L:1/8
K:D
(A/G/)|F2E FDD|Ddc dAG|F2E FDD|FAF GFE|
FEG FDD|Ddc dAG|FAG FGE|FDD D2:|
(F/G/)|ABc d2e|fdf ecA|ABd efg|faf gfe|
ABc d2e|fdf ecA|AGF EAG|FDD D2:|


